X: 1
T: the Grand old Midway March
C: Don Coffey
O: Frankfort, Kentucky
%R: march
Z: Collected and edited 2014 by John Chambers <jc:trillian.mit.edu>
B: GEMS The Best of the Country Dance and Song Society Diamond Jubilee Music, Dance and Song Contest 1993 p.69
M: C
L: 1/8
K: D
% - - - - - - - - - - - - - - - - - - - - - - - - -
A, B,C | "D"D2 DE F2 FG | A>^G AB A2 de |\
"D"f2 d>f "G"ed cB | "D"A6 BA |\
"A"G2G2 E2AG | "D"F>D FA "Bm"d2 AB |\
"A"c2c2 "E"B>c dB | "A"e6 FE |
"D"D2 DE F2 FG | "A"A>G AB A2 de |\
"D"f2 d>f "G"ed cB | "D"A6 GA |\
"G"B2B2 "A"cA Bc | "Bm"d>B cd "Em"ef ge |\
"D"f>A ^GA "A"f2 e2 | "D"d6 z2 ||[K:=c][K:G]
"G"D4 E2 F2 | G4 G2 A2 |\
"G"B2 G2 "G"B2 "C"e2 | "G"d6 ed |\
"D7"c2 B2 A2 d2 | "G"B2 A2 "Em"G2 AG |\
"D"F2 A2 "A7"^c2 fe | "D7"d6 DD |
"G"D4 E2 F2 | G4 G2 A2 |\
"G"B2 G2 c2 d2 | "C"e8 |\
"C"g4 f2 e2 | "G"d2 G2 "C"d2 c2 |\
"G"B>D ^CD "D7"B2 A2 | "G"G4- G |]
% - - - - - - - - - - - - - - - - - - - - - - - - -
